X: 61
P: Longways for as many as will
M: 2/2
L: 1/8
K: Gm
g2a2 b2f2 | gfed c2f2 | d2B2 c2A2 | B6 G2 |\
g2a2 b2f2 | gfed c2f2 | d2B2 c2A2 | B6 |] z2 |\
d2A2 A2dc | =Bc =BA G2d2 | g2d2 d2gf | =ef =ed c2=e2 |
f4 g4 | agab a2gf | =e2f2 g2=e2 | f6 f2 |\
b2d2 d2ef | gfed c2de | f2B2 B2cd | edcB A2Bc |\
d4 =e4 | ^f2B2 g2ab | a2g2 a2^f2 | g6 |]

